/* XPM */
static char *AudioMixer_xpm[] = {
"32 32 8 1",
"  c None",
". c #2f3846",
"+ c #738195",
"| c #151b24",
"g c #2dc66f",
"y c #efbd45",
"b c #4aa3ff",
"o c #e8eef6",
"                                ",
"        ++++++++++++++++        ",
"      ++................++      ",
"     +....................+     ",
"    +......................+    ",
"   +........................+   ",
"   +......||......||......||+   ",
"   +......||......||......||+   ",
"   +......||......||......||+   ",
"   +......||......||......||+   ",
"   +......||...yyyyyy.....||+   ",
"   +......||...yooooy.....||+   ",
"   +......||...yyyyyy.....||+   ",
"   +..gggggg......||......||+   ",
"   +..goooog......||......||+   ",
"   +..gggggg......||......||+   ",
"   +......||......||......||+   ",
"   +......||......||......||+   ",
"   +......||......||..bbbbbb+   ",
"   +......||......||..boooob+   ",
"   +......||......||..bbbbbb+   ",
"   +......||......||......||+   ",
"   +......||......||......||+   ",
"   +......||......||......||+   ",
"   +......||......||......||+   ",
"   +.....ggg.....yyy.....bbb+   ",
"   +.....ggg.....yyy.....bbb+   ",
"   +........................+   ",
"    +......................+    ",
"     +....................+     ",
"      ++................++      ",
"        ++++++++++++++++        "};
